X:1
T:Rondino
T:Rondino 
T:(On a Theme by Beethoven)
T:Fritz Kreisler
T:To Mischa Elman
C:Fritz Kreisler
%%score 1 { ( 2 4 ) | ( 3 5 ) }
L:1/8
Q:1/4=130
M:3/4
K:Eb
V:1 treble nm="Violin"
V:2 treble nm="Piano"
V:4 treble 
V:3 bass 
V:5 bass 
V:1
"^Allegro grazioso"!p! (uE2 F2 | .G) z (!1!G2 B2 | .A) z (ABA!3!G | .F) z (FGA!0!=A) | B4 cd | %5
 (!2!e4 fe) | (d2 c'2 d2) | (d2 c'2 d2 | .e) z (E2 F2 | .!1!G) z (G2 B2 | .A) z (ABA!3!G | %11
 .F) z (FGA!0!=A) | B4 cd | (!2!e4 fe) | (d2 c'2 d2) | (d2 c'2 d2) | .e z z2"^cresc."!<(! ue2 | %17
 (!3!d4!<)!!>(! c2)!>)! | B2 z2!p! u!3!A2 | G3 .A F2 | !3!B2 z2 u!1!E2 |!<(! (D4 E2)!<)! | %22
!>(! ((!3!B2 A2) !tenuto!G2)!>)! | (!2!G6 | F2) z2 !2!e2 |!<(! (defe!<)!!>(!!3!dc) | %26
 B2!>)! z2!p! !3!A2 | G3 .A F2 | !3!B2 z2"^IV""_cresc." !2!E2 |!<(! (D4 F2)!<)! | (F2 E2) u!3!C2 | %31
!>(! (C6 | B,)!>)! z!p! (E2 F2 | .G) z (G2 B2 | .A) z (ABAG | .F) z (FGA=A) | B4 cd | (e4 fe) | %38
 (d2 c'2 d2) | (d2 c'2 d2) | e z z2"^III""_cresc." u!2!G2 | (F4 !3!e2) | (!3!d4 B2) | %43
 ((!1!G2 B2) .=A2) | (!2!B2 cB!3!=AG) | (F4 !3!e2) | !3!d4 (B2 | (dc)) .B2 .!2!=A2 | %48
 .G2 z2!<(! u!2!G2 | (F4 !3!e2)!<)! |!>(! (!3!d4 B2)!>)! | ((!1!G2 B2) .=A2) | (!2!B2 cB!3!=AG) | %53
 (F4 !3!e2) | !3!d4 (B2 | (dc)) .B2 .!2!A2 | .G2!p! (u_E2 F2 | .G) z (G2 B2 | .A) z (ABAG | %59
 .F) z (FGA=A) | B4 cd | (!2!e4 fe) | (d2 c'2 d2) | (d2 c'2 d2) | e z z2!f! ue2 | %65
 ((!3!d2 =B2) !tenuto!c2) | (!3!_B4 A2) | G2 z2 G2 |!<(! (!3!c4!<)!!>(! A2)!>)! | !1!G2 z2 (C2 | %70
 (!3!G3 FE!2!D)) | (D!>(!C) (.C2 .C2)!>)! | .C2 z2!f! ue2 | ((d2 =B2) !tenuto!c2) | (!3!_B4 A2) | %75
 G2 z2!<(! G2 | (!3!c4!<)!!>(! A2)!>)! | !1!G2 z2 (C2 | (!3!G3 FE!2!D)) |!>(! (DC) (.C2 .C2)!>)! | %80
 .C2 z2!<(! (C2!<)! |!>(! (!2!E4 _D2))!>)! | _D2 z2"_cantando""^III" (!2!B2 | _d2) z2 (!1!G2 | %84
 !2!A2) z2 u!1!c2 | e6- | e2!>(! (!4!c2 A2!>)! | G2) z2 (B2 | A2) z2!<(! !1!c2 | (e6!<)! | %90
!>(! c2)!>)! z2"^II""^con colore""_cresc." !1!c2 | (!3!f6 | f2) (!tenuto!_d2 !tenuto!!3!B2) | %93
 A2 z2 (!1!A2 |{Bc} B2) A2 B2 |"^semplice" (c2!>(! B)A!2!GF | !3!B2 (!4!AGF!>)!E) | (G6 | %98
 F2) E2 (F2 | .G) z (G2 B2 | .A) z (ABA!3!G | .F) z (FGA!0!=A) | B4 cd | (!2!e4 fe) | (d2 c'2 d2) | %105
 (d2 c'2 d2 | .e) z (E2 F2 | .!1!G) z (G2 B2 | .A) z (ABA!3!G | .F) z (FGA!0!=A) | B4 cd | %111
 (!2!e4 fe) | (d2 c'2) d2 | (d2"^II" !3!c'4-) | c'2 z2!<(! u!1!d2 | (f6!<)! | %116
!>(! e2)!>)! z2!<(! B2 | !3!e6-!<)! |!>(! e2!>)! z2!p!"^semplice" (!1!B2 | .!3!e2) z2 (u!1!F2 | %120
 .!3!c2) z2!<(! u!1!D2!<)! |!>(! (F6 | E2)!>)! z2 z2 |] %123
V:2
 z2 z2 |!p! (G,B,[EG]B,G,B,) | (A,B,[DA]B,A,B,) | (A,B,[DA]B,A,B,) | (G,B,[EG]B,G,B,) | %5
 (B,!<(!EB!<)!!>(!E!>)!=A,B,) | (_A,B,[DA]B,A,B,) | (A,B,[DA]B,A,B,) | .[G,EG] z z2 z2 | %9
 .G,.B,.[EG].B,.G,.B, | .A,.B,.[DA].B,.A,.B, | .A,.B,.[DA].B,.A,.B, | .G,.B,.[EG].B,.G,.B, | %13
 .B,.E.B.E.=A,.B, | ._A,.B,.[DA].B,.A,.B, | .A,.B,.[DA].B,.A,B, | .[G,EG] z z2"_cresc." ([Be]2 | %17
 [Ad]4 [Gc]2 | [FB]2) z2!p! ([EA]2 | [EG]4 [DF]2 | [EB]2) z2 ([B,E]2 |!<(! [A,D]4 [G,E]2)!<)! | %22
!>(! (B2 A2) [EG]2!>)! | ([EG]6 | [DF]2) z2 ([Be]2 | d2 .b) z ([Gc]2 | [FB]2 B,2) ([E-A]2 | %27
 [EG]4) ([B,-F]2 | [B,B]2) z2 x2 | x6 | ([DF]2 .[EG]) z .[E=A]2 |!>(! (([E=A]6 | [DB]))!>)! z z4 | %33
 (G,B,[EG]B,G,B,) | (A,B,[DA]B,A,B,) | (A,B,[FA]B,A,B, | B,)!<(!(B,GB,FB,)!<)! | %37
!>(! (EB,BB,=A,B,)!>)! | (_A,B,[DA]B,A,B,) | (A,B,[DA]B,A,B,) | [G,EG] z z2 z2 | %41
 z2"^cresc." [EF]4 | z2 (D2 F2) | z2 (B,2 =A,2) | z2 ((F2 =E2)) | z2 (B,2 =A,2) | z2 (D2 F2) | %47
 ([=A,E]2 [B,D]2) [C^F]2 | [B,G] x x4 | x6 | x6 | x6 |[I:staff +1] (F,[I:staff -1]B,FB,=EB,) | %53
 z (=A,[_EF]A,[I:staff +1]F,A,) |[I:staff -1] x6 | E2 D2 ^F2 |!>(! (DC=B,_B,=A,_A,)!>)! | %57
 .G,.B,.[EG].B,.G,.B, | .A,.B,.[DA].B,.A,.B, | .A,.B,.[DA].B,.A,.B, | .G,.B,.[EG].B,.G,.B, | %61
 .B,.E.B.E.=A,.B, | ._A,.B,.[DA].B,.A,.B, | .A,.B,.[DA].B,.A,.B, | .[G,EG] z z2!f! [Gc]2 | %65
 (([_A=B]2 [DF]2)) [CE]2 | [CF]6 |"^express." (=B,2!<(! D2 C2 | F2 D2 C2)!<)! | (=B,4 C2) | %70
 z2 x2 x2 | z2 x2 x2 | x2 z2!f! [EG]2 | ([=B,A]2!<(! [DF]2 [CE]2) | ([D_B]4 [CA]2)!<)! | %75
!>(! [=B,G]4!>)! ([DG-]2 |!<(! [CG]2) (F2 E2) | [DG](G,!>!=B,G,!>!C!<)!G,) | z2 x2 x2 | z2 x2 x2 | %80
 x2 z2 z2 |"_poco cresc." z2 !tenuto![G,_D]2 !tenuto![G,D]2 | !tenuto![G,_D]2 z2 z2 | (G,_DEDG,E) | %84
 (A,CECA,!<(!C) | (B,EBE_DE)!<)! |!>(! (CEAE!>)!CA,) | (G,B,EB,G,B,) | (A,CECA,!<(!C) | %89
 (B,EBE_DE)!<)! | (CEc!<(!AG_G) | (C!<)!E[Fc]ECE) | (_DF[B_d]FB,F) | (CE[Ac]ECE) | (B,FBFB,F) | %95
 .=E2 ([CF]2 [B,=D]2) | _E6 |!<(! (B,=A,B,A,!<)!!>(!B,A, | B,2)!>)! z2 z2 | (G,B,[EG]B,G,B,) | %100
 (A,B,[DA]B,A,B,) | (A,B,[DA]B,A,B,) | (G,B,[EG]B,G,B,) | (B,EBE=A,B,) | (_A,B,[DA]B,A,B,) | %105
 (A,B,[DA]B,A,B,) | G, z z4 | G,.B,.[EG].B,.G,.B, | .A,.B,.[DA].B,.A,.B, | .A,.B,.[DA].B,.A,.B, | %110
 .G,.B,.[EG].B,.G,.B, | .B,.E.B.E.=A,.B, | (_A,B,[DA]B,A,B,) | (A,-(B,-) [DA]4-) | %114
 [DA]2 z2"_cresc." [FAd]2 |!<(! (([A=B]6!<)! |!>(! [Gc]2))!>)! z2!p!!<(! [G_B]2 | [Ae]6-!<)! | %118
!>(! [Ae]2!>)! z2!p! ([E-B]2 | [EA]2) z2 ([C-E-F]2 | [CEA]2) z2 ([A,B,D]2- | (([A,B,-DF]6) | %122
 [G,B,E]2)) z2 z2 |] %123
V:3
 z2 z2 | ((E,,2 B,,2 B,,,2)) | (F,,2 B,,2 F,,2) | (B,,,2 B,,2 B,,,2) | (E,,2 B,,2 B,,,2) | %5
 (G,,2 B,,2 ^F,,2) | (=F,,2 B,,2 F,,2) | (B,,,2 B,,2 B,,,2) | .[E,,B,,] z z2 z2 | %9
 .E,,2 .B,,2 .B,,,2 | .F,,2 .B,,2 .F,,2 | .B,,,2 .B,,2 .B,,,2 | .E,,2 .B,,2 .B,,,2 | %13
 .G,,2 .B,,2 .^F,,2 | .=F,,2 .B,,2 .F,,2 | .B,,,2 .B,,2 .B,,,2 | .E,, z z2 x2 | z2 B,4- | %18
 B,2 z2 ([C,E,-]2 | [B,,E,]2) z2 (A,2 | G,2) z2 B,,2- | B,,2 B,,4 | A,,4 [=A,,G,]2 | %23
 G,!<(! (=A,B,A,B,!<)!!>(!A, | B,2)!>)! z2 ([G,B,-]2 | [F,B,]4)!<(! (E,2 | D,E,F,!<)!!>(!E,D,C,) | %27
 (B,,2!>)! .B,) z (([A,,D,]2 | [G,,E,]2)) z2"^cresc." ([G,B,-]2 |!<(! [F,B,]4) (B,D)!<)! | F,,6 | %31
 z2 .B,,2 .F,,2 | .B,,, z z4 |!p! (E,,2 B,,2 B,,,2) | (F,,2 B,,2 B,,,2) | (D,,2 B,,2 B,,,2) | %36
 (G,,2 B,,2 A,,2) | (G,,2 B,,2 _G,,2) | (F,,2 B,,2 F,,2) | (x2 B,,4- | B,,) z z2 z2 | z2 F,4 | %42
 z2 F,4 | z2 F,4 | z2 F,4 | z2 F,4 | z2 F,4 | C,2 (D,2 D,,2 | G,,)!<(! (B,=A,_A,G,_G,)!<)! | %49
 (F,C[EF]CF,=A,) | (F,B,[DF]B,F,B,) | (F,B,[EF]B,F,=A,) | z2 F,4 | (=C,2 F,2 F,,2) | %54
 (F,B,[DF]B,F,B,) | C,2 D,2 D,,2 | G,, z z2 z2 |!p! .E,,2 .B,,2 .B,,,2 | .F,,2 .B,,2 .F,,2 | %59
 .B,,,2 .B,,2 .B,,,2 | .E,,2 .B,,2 .B,,,2 | .G,,2 .B,,2 .^F,,2 | .=F,,2 .B,,2 .F,,2 | %63
 .B,,,2 .B,,2 .B,,,2 | .E,, z z2 C2 | (C,2 A,2) G,2 | (F,,2 C,2 D,2-) | D,2 (F,2 E,2 | %68
 A,2 F,2 E,2) | (D,2 F,,2 E,,2) | z2!p! (([A,C]2 [F,=B,]2)) | z2 .[E,C]2 .[E,C]2 | %72
 [C,,G,,]2 z2 G,C, | (F,C,A,C,G,C,) | (F,C,F,,C,F,D,) | (G,,G,!>!^F,G,!>!=F,G,) | %76
 (!>!E,G,!>!D,G,!>!C,G,) | (=B,,2 F,,2 E,,2) |!>(! z2 (([A,C]2 [F,=B,]2))!>)! | %79
 z2 .[E,C]2 .[E,C]2 | .[E,C]2 z2 z2 | z2 !tenuto![B,,E,]2 !tenuto![B,,E,]2 | %82
 !tenuto![B,,E,]2 z2 z2 | ([E,,_D,]2 E,2 D,2) | (C,2 E,2 C,2) | (G,,2 E,2 G,,2) | (A,,2 E,2 A,,2) | %87
 (_D,2 E,2 D,2) | (C,2 E,2 C,2) | (G,,2 E,2 G,,2) | (A,,2 E,2) E,2 | (=A,,2 F,2 A,,2) | %92
 (B,,2 F,2 _D,2) | E,4 (E,2 | F,4 G,2) | .[C,G,]2 (F,2 _A,2) | (G,2 E,2 C,2) | B,,6- | B,,2 z2 z2 | %99
!p! (=E,,2 !>!B,,2 B,,,2) | (F,,2 !>!B,,2 F,,2) | (B,,,2 !>!B,,2 B,,,2) | (E,,2 !>!B,,2 B,,,2) | %103
 (G,,2 !>!B,,2 ^F,,2) | (=F,,2 !>!B,,2 F,,2) | (B,,,2 !>!B,,2 B,,,2) | E,, z z4 | %107
!p! .[E,,B,,] z[K:treble] .B z z2 |[K:bass] .[F,,B,,] z[K:treble] .B z z2 | %109
[K:bass] .[B,,,B,,] z[K:treble] .B z z2 |[K:bass] .[E,,B,,] z[K:treble] .B z z2 | %111
[K:bass] .G,,2 .B,,2 .^F,,2 | z2 B,,4 | z2 B,,4- | B,,2 z2 =B,2 | ([C-D]6 | [CE]2) z2 [_DE]2 | %117
 [CE]6- | [CE]2 z2 (([_D,G,]2 |"_violinworker 05/2019" [C,A,]2)) z2 (A,2 | F,2) z2 z2 | %121
 z2 .B,,2 .B,,,2 | .E,,2 z2 z2 |] %123
V:4
 x4 | x6 | x6 | x6 | x6 | x6 | x6 | x6 | x6 | x6 | x6 | x6 | x6 | x6 | x6 | x6 | x4 (G2 | F4 E2 | %18
 D2) x4 | x6 | x6 | x6 | C4 x2 | x6 | x6 | A4 x2 | x6 | x6 | x6 | x6 | x6 | x6 | x6 | x6 | x6 | %35
 x6 | x6 | x6 | x6 | x6 | x6 | x2 (C2 =A,2) | x2 B,4 | x2 [EF]4 | x2 [B,F]4 | x2 [_EF]4 | x2 B,4 | %47
 x6 | x6 | x6 | x6 | x6 | x6 | x6 | x6 | (G,=A,) B,2 [CD]2 | [B,G] x5 | x6 | x6 | x6 | x6 | x6 | %62
 x6 | x6 | x6 | x6 | x6 | x6 | x6 | z2!>(! G,4!>)! | x6 | x6 | x6 | x6 | x6 | x6 | x2 G4 | x6 | %78
 x6 | x6 | x6 | x6 | x6 | x2 G x3 | x2 A x3 | x2 _d x3 | x2 c x3 | x2 G x3 | x2 A x3 | x2 _d x3 | %90
 x2 c x3 | x6 | x6 | x6 | x6 | x6 | (B,4 =A,2) | (E6 | D2) x4 | x6 | x6 | x6 | x6 | x6 | x6 | x6 | %106
 x6 | x6 | x6 | x6 | x6 | x6 | x6 | A,2 [A,B,]4- | [A,B,]2 x4 | x6 | x6 | x6 | x6 | x6 | x6 | x6 | %122
 x6 |] %123
V:5
 x4 | x6 | x6 | x6 | x6 | x6 | x6 | x6 | x6 | x6 | x6 | x6 | x6 | x6 | x6 | x6 | x6 | x6 | x6 | %19
 z2 !>!B,4- | B,2 x2 (G,,2 | F,,4 E,,2) | (G,2 F,2) x2 | B,, x5 | x6 | x6 | x6 | x6 | x4 (C,2 | %29
 D,F,,D,F,-) F,2- | F,6 | x6 | x6 | x6 | x6 | x6 | x6 | x6 | x6 | B,,,2 B,,2 B,,,2 | E,, x5 | %41
 (=A,,4 F,,2) | (B,,4 D,2) | (C,4 E,2) | (D,4 ^C,2) | (=C,4 F,,2) | (B,,4 D,2) | x2 D,4- | %48
 D, z z2 z2 | (=A,,2 F,2 F,,2) | (B,,2 F,2 D,2) | (C,2 F,2 E,2) | (D,4 ^C,2) | x6 | %54
 (B,,2 F,2 D,2) | x6 | x6 | x6 | x6 | x6 | x6 | x6 | x6 | x6 | x6 | x6 | x6 | G,,6- | G,,6 | x6 | %70
 x2 (D,,2 G,,2) | x2 [C,,G,,]2 [C,,G,,]2 | .[E,C]2 x2 G,2 | x6 | x6 | x6 | x6 | x6 | %78
 x2 (D,,2 G,,2) | x2 [C,,G,,]2 [C,,G,,]2 | [C,,G,,]2 x4 | x6 | x6 | x6 | x6 | x6 | x6 | x6 | x6 | %89
 x6 | x6 | x6 | x6 | x6 | _D,6 | x6 | x6 | x6 | x6 | x6 | x6 | x6 | x6 | x6 | x6 | x6 | x6 | %107
 x2[K:treble] x4 |[K:bass] x2[K:treble] x4 |[K:bass] x2[K:treble] x4 |[K:bass] x2[K:treble] x4 | %111
[K:bass] x6 | =F,,6 | B,,,6- | B,,,2 x4 | x6 | x6 | x6 | x6 | x6 | x6 | x6 | x6 |] %123

